Newaita-dark/apps/16/com.github.rkoesters.xkcd-gtk.svg

<svg height="16" viewBox="0 0 16 16" width="16" xmlns="http://www.w3.org/2000/svg" xmlns:xlink="http://www.w3.org/1999/xlink"><linearGradient id="a"><stop offset="0" stop-opacity=".313726"/><stop offset=".222222" stop-opacity=".27451"/><stop offset="1" stop-opacity="0"/></linearGradient><radialGradient id="b" cx="450.908936" cy="189.579361" gradientTransform="matrix(.00000009 -.0390662 -.0703192 -.00000005 22.261576 31.797665)" gradientUnits="userSpaceOnUse" r="21.166656" xlink:href="#a"/><radialGradient id="c" cx="450.908936" cy="189.579361" gradientTransform="matrix(-.00000009 .0390662 .0703192 .00000005 -6.385059 -3.763741)" gradientUnits="userSpaceOnUse" r="21.166656" xlink:href="#a"/><radialGradient id="d" cx="450.908936" cy="189.579361" gradientTransform="matrix(-.00000009 -.0390662 .0703192 -.00000005 -6.385059 31.797665)" gradientUnits="userSpaceOnUse" r="21.166656" xlink:href="#a"/><radialGradient id="e" cx="450.908936" cy="189.579361" gradientTransform="matrix(.00000009 .0390662 -.0703192 .00000005 22.261575 -3.763741)" gradientUnits="userSpaceOnUse" r="21.166656" xlink:href="#a"/><linearGradient id="f" gradientTransform="matrix(.00668003 0 0 .031253 6.232693 6.719392)" gradientUnits="userSpaceOnUse" x1="255.323059" x2="255.323044" y1="233.5" y2="254.666656"><stop offset="0" stop-opacity=".27451"/><stop offset="1" stop-opacity="0"/></linearGradient><linearGradient id="g" gradientUnits="userSpaceOnUse" x1="9.26130600003" x2="9.26130600003" y1="14.0169675" y2="1.44805249998"><stop offset="0" stop-color="#bdbdbd"/><stop offset="1" stop-color="#e0e0e0"/></linearGradient><linearGradient id="h" gradientTransform="matrix(.00716118 -.00413451 .00413451 .00716118 -2.944365 4.718648)" gradientUnits="userSpaceOnUse" x1="960" x2="960" y1="1695.118164" y2="175.118134"><stop offset="0" stop-color="#424242"/><stop offset="1" stop-color="#616161"/></linearGradient><path d="m9.097656 14.015625h1.320313v-.660156h-1.320313zm0 0" fill="url(#b)"/><path d="m6.78125 14.015625h-1.324219v.664063h1.324219zm0 0" fill="url(#c)"/><path d="m6.78125 14.015625h-1.324219v-.660156h1.324219zm0 0" fill="url(#d)"/><path d="m9.097656 14.015625h1.320313v.664063h-1.320313zm0 0" fill="url(#e)"/><path d="m6.78125 13.851562h2.316406v.828126h-2.316406zm0 0" fill="url(#f)"/><path d="m7.9375 1.449219c3.472656 0 6.285156 2.8125 6.285156 6.285156 0 3.46875-2.8125 6.28125-6.285156 6.28125-3.46875 0-6.285156-2.8125-6.285156-6.28125 0-3.472656 2.816406-6.285156 6.285156-6.285156zm0 0" fill="url(#g)"/><path d="m7.9375 14.015625c-3.480469 0-6.285156-2.800781-6.285156-6.28125 0-.023437 0-.042969 0-.0625.035156 3.453125 2.824218 6.222656 6.285156 6.222656s6.253906-2.769531 6.285156-6.222656v.0625c0 3.480469-2.804687 6.28125-6.285156 6.28125zm0 0" fill-opacity=".196078"/><path d="m7.9375 1.449219c-3.480469 0-6.285156 2.800781-6.285156 6.285156v.058594c.035156-3.453125 2.824218-6.222657 6.285156-6.222657s6.253906 2.769532 6.285156 6.222657c0-.019531 0-.039063 0-.058594 0-3.484375-2.804687-6.285156-6.285156-6.285156zm0 0" fill="#fff" fill-opacity=".392157"/><path d="m7.9375 1.402344c-3.507812 0-6.332031 2.824218-6.332031 6.332031 0 3.503906 2.824219 6.328125 6.332031 6.328125s6.332031-2.824219 6.332031-6.328125c0-3.507813-2.824219-6.332031-6.332031-6.332031zm0 .09375c3.457031 0 6.238281 2.78125 6.238281 6.238281 0 3.453125-2.78125 6.234375-6.238281 6.234375s-6.238281-2.78125-6.238281-6.234375c0-3.457031 2.78125-6.238281 6.238281-6.238281zm0 0" fill="#212121"/><path d="m5.25 7.007812c-.316406.179688-.425781.585938-.242188.902344l.664063 1.144532-1.433594.828124c-.160156.089844-.210937.292969-.121093.453126.089843.15625.292968.210937.453124.121093l2.003907-1.160156 3.4375-1.984375 2.003906-1.15625c.160156-.09375.214844-.292969.121094-.453125-.089844-.15625-.292969-.210937-.449219-.121094l-1.433594.828125-.660156-1.144531c-.183594-.320313-.589844-.425781-.90625-.242187zm0 0" fill="url(#h)"/><path d="m9.035156 4.933594c-.117187-.003906-.238281.023437-.347656.089844l-3.4375 1.984374c-.25.144532-.371094.429688-.316406.699219.035156-.183593.144531-.347656.316406-.445312l3.4375-1.984375c.316406-.183594.722656-.078125.90625.242187l.660156 1.144531 1.433594-.828124c.15625-.089844.359375-.035157.449219.121093.007812.011719.015625.027344.019531.039063.039062-.089844.035156-.199219-.019531-.292969-.089844-.15625-.292969-.210937-.449219-.121094l-1.433594.828125-.660156-1.144531c-.121094-.210937-.335938-.328125-.558594-.332031zm-3.476562 4.183594-1.320313.765624c-.144531.082032-.203125.261719-.140625.414063.027344-.066406.074219-.121094.140625-.160156l1.433594-.828125zm0 0" fill="#fff" fill-opacity=".235294"/><path d="m12.105469 6.078125c-.023438.03125-.054688.058594-.089844.078125l-2.003906 1.15625-3.4375 1.984375-2.003907 1.160156c-.144531.082031-.320312.046875-.421874-.078125-.085938.101563-.101563.25-.03125.375.089843.160156.292968.210938.453124.121094l2.003907-1.15625 3.4375-1.984375 2.003906-1.160156c.160156-.089844.214844-.292969.121094-.453125-.007813-.015625-.019531-.027344-.03125-.042969zm-7.152344 1.710937c-.058594.171876-.042969.367188.054687.539063l.480469.832031.183594-.105468-.664063-1.144532c-.023437-.039062-.039062-.082031-.054687-.121094zm0 0" fill-opacity=".235294"/><path d="m167.983958 9.228587c-10.124033 5.749451-13.623699 18.74821-7.74926 28.872243l21.247971 36.621503-45.870619 26.49747c-5.124511 2.874725-6.749356 9.374104-3.87463 14.498615 2.874725 4.999523 9.374105 6.749355 14.498615 3.87463l64.118877-37.121455 109.989497-63.493937 64.118877-36.996467c5.12451-2.999713 6.874343-9.374105 3.87463-14.498615-2.874726-4.999523-9.374105-6.749356-14.373628-3.87463l-45.870619 26.497469-21.122983-36.621502c-5.874439-10.249022-18.873198-13.623699-28.997231-7.74926zm0 0" fill="none" stroke="#212121" stroke-linecap="round" stroke-linejoin="round" stroke-width="3" transform="matrix(.031253 0 0 .031253 0 6.719392)"/></svg>

<?xml version="1.0" encoding="UTF-8"?>
<svg xmlns="http://www.w3.org/2000/svg" xmlns:xlink="http://www.w3.org/1999/xlink" width="16px" height="16px" viewBox="0 0 16 16" version="1.1">
<defs>
<radialGradient id="radial0" gradientUnits="userSpaceOnUse" cx="450.908936" cy="189.579361" fx="450.908936" fy="189.579361" r="21.166656" gradientTransform="matrix(0.0000000870852,-0.0390662,-0.0703192,-0.0000000507693,22.261576,31.797665)">
<stop offset="0" style="stop-color:rgb(0%,0%,0%);stop-opacity:0.313726;"/>
<stop offset="0.222222" style="stop-color:rgb(0%,0%,0%);stop-opacity:0.27451;"/>
<stop offset="1" style="stop-color:rgb(0%,0%,0%);stop-opacity:0;"/>
</radialGradient>
<radialGradient id="radial1" gradientUnits="userSpaceOnUse" cx="450.908936" cy="189.579361" fx="450.908936" fy="189.579361" r="21.166656" gradientTransform="matrix(-0.0000000870852,0.0390662,0.0703192,0.0000000507693,-6.385059,-3.763741)">
<stop offset="0" style="stop-color:rgb(0%,0%,0%);stop-opacity:0.313726;"/>
<stop offset="0.222222" style="stop-color:rgb(0%,0%,0%);stop-opacity:0.27451;"/>
<stop offset="1" style="stop-color:rgb(0%,0%,0%);stop-opacity:0;"/>
</radialGradient>
<radialGradient id="radial2" gradientUnits="userSpaceOnUse" cx="450.908936" cy="189.579361" fx="450.908936" fy="189.579361" r="21.166656" gradientTransform="matrix(-0.0000000870852,-0.0390662,0.0703192,-0.0000000507693,-6.385059,31.797665)">
<stop offset="0" style="stop-color:rgb(0%,0%,0%);stop-opacity:0.313726;"/>
<stop offset="0.222222" style="stop-color:rgb(0%,0%,0%);stop-opacity:0.27451;"/>
<stop offset="1" style="stop-color:rgb(0%,0%,0%);stop-opacity:0;"/>
</radialGradient>
<radialGradient id="radial3" gradientUnits="userSpaceOnUse" cx="450.908936" cy="189.579361" fx="450.908936" fy="189.579361" r="21.166656" gradientTransform="matrix(0.0000000870852,0.0390662,-0.0703192,0.0000000507693,22.261575,-3.763741)">
<stop offset="0" style="stop-color:rgb(0%,0%,0%);stop-opacity:0.313726;"/>
<stop offset="0.222222" style="stop-color:rgb(0%,0%,0%);stop-opacity:0.27451;"/>
<stop offset="1" style="stop-color:rgb(0%,0%,0%);stop-opacity:0;"/>
</radialGradient>
<linearGradient id="linear0" gradientUnits="userSpaceOnUse" x1="255.323059" y1="233.5" x2="255.323044" y2="254.666656" gradientTransform="matrix(0.00668003,0,0,0.031253,6.232693,6.719392)">
<stop offset="0" style="stop-color:rgb(0%,0%,0%);stop-opacity:0.27451;"/>
<stop offset="1" style="stop-color:rgb(0%,0%,0%);stop-opacity:0;"/>
</linearGradient>
<linearGradient id="linear1" gradientUnits="userSpaceOnUse" x1="296.333344" y1="233.5" x2="296.333344" y2="-168.666672" gradientTransform="matrix(0.031253,0,0,0.031253,0,6.719392)">
<stop offset="0" style="stop-color:rgb(74.117649%,74.117649%,74.117649%);stop-opacity:1;"/>
<stop offset="1" style="stop-color:rgb(87.843138%,87.843138%,87.843138%);stop-opacity:1;"/>
</linearGradient>
<linearGradient id="linear2" gradientUnits="userSpaceOnUse" x1="960" y1="1695.118164" x2="960" y2="175.118134" gradientTransform="matrix(0.00716118,-0.00413451,0.00413451,0.00716118,-2.944365,4.718648)">
<stop offset="0" style="stop-color:rgb(25.882354%,25.882354%,25.882354%);stop-opacity:1;"/>
<stop offset="1" style="stop-color:rgb(38.039216%,38.039216%,38.039216%);stop-opacity:1;"/>
</linearGradient>
</defs>
<g id="surface1">
<path style=" stroke:none;fill-rule:nonzero;fill:url(#radial0);" d="M 9.097656 14.015625 L 10.417969 14.015625 L 10.417969 13.355469 L 9.097656 13.355469 Z M 9.097656 14.015625 "/>
<path style=" stroke:none;fill-rule:nonzero;fill:url(#radial1);" d="M 6.78125 14.015625 L 5.457031 14.015625 L 5.457031 14.679688 L 6.78125 14.679688 Z M 6.78125 14.015625 "/>
<path style=" stroke:none;fill-rule:nonzero;fill:url(#radial2);" d="M 6.78125 14.015625 L 5.457031 14.015625 L 5.457031 13.355469 L 6.78125 13.355469 Z M 6.78125 14.015625 "/>
<path style=" stroke:none;fill-rule:nonzero;fill:url(#radial3);" d="M 9.097656 14.015625 L 10.417969 14.015625 L 10.417969 14.679688 L 9.097656 14.679688 Z M 9.097656 14.015625 "/>
<path style=" stroke:none;fill-rule:nonzero;fill:url(#linear0);" d="M 6.78125 13.851562 L 9.097656 13.851562 L 9.097656 14.679688 L 6.78125 14.679688 Z M 6.78125 13.851562 "/>
<path style=" stroke:none;fill-rule:nonzero;fill:url(#linear1);" d="M 7.9375 1.449219 C 11.410156 1.449219 14.222656 4.261719 14.222656 7.734375 C 14.222656 11.203125 11.410156 14.015625 7.9375 14.015625 C 4.46875 14.015625 1.652344 11.203125 1.652344 7.734375 C 1.652344 4.261719 4.46875 1.449219 7.9375 1.449219 Z M 7.9375 1.449219 "/>
<path style=" stroke:none;fill-rule:nonzero;fill:rgb(0%,0%,0%);fill-opacity:0.196078;" d="M 7.9375 14.015625 C 4.457031 14.015625 1.652344 11.214844 1.652344 7.734375 C 1.652344 7.710938 1.652344 7.691406 1.652344 7.671875 C 1.6875 11.125 4.476562 13.894531 7.9375 13.894531 C 11.398438 13.894531 14.191406 11.125 14.222656 7.671875 C 14.222656 7.691406 14.222656 7.710938 14.222656 7.734375 C 14.222656 11.214844 11.417969 14.015625 7.9375 14.015625 Z M 7.9375 14.015625 "/>
<path style=" stroke:none;fill-rule:nonzero;fill:rgb(100%,100%,100%);fill-opacity:0.392157;" d="M 7.9375 1.449219 C 4.457031 1.449219 1.652344 4.25 1.652344 7.734375 C 1.652344 7.753906 1.652344 7.773438 1.652344 7.792969 C 1.6875 4.339844 4.476562 1.570312 7.9375 1.570312 C 11.398438 1.570312 14.191406 4.339844 14.222656 7.792969 C 14.222656 7.773438 14.222656 7.753906 14.222656 7.734375 C 14.222656 4.25 11.417969 1.449219 7.9375 1.449219 Z M 7.9375 1.449219 "/>
<path style=" stroke:none;fill-rule:nonzero;fill:rgb(12.941177%,12.941177%,12.941177%);fill-opacity:1;" d="M 7.9375 1.402344 C 4.429688 1.402344 1.605469 4.226562 1.605469 7.734375 C 1.605469 11.238281 4.429688 14.0625 7.9375 14.0625 C 11.445312 14.0625 14.269531 11.238281 14.269531 7.734375 C 14.269531 4.226562 11.445312 1.402344 7.9375 1.402344 Z M 7.9375 1.496094 C 11.394531 1.496094 14.175781 4.277344 14.175781 7.734375 C 14.175781 11.1875 11.394531 13.96875 7.9375 13.96875 C 4.480469 13.96875 1.699219 11.1875 1.699219 7.734375 C 1.699219 4.277344 4.480469 1.496094 7.9375 1.496094 Z M 7.9375 1.496094 "/>
<path style=" stroke:none;fill-rule:nonzero;fill:url(#linear2);" d="M 5.25 7.007812 C 4.933594 7.1875 4.824219 7.59375 5.007812 7.910156 L 5.671875 9.054688 L 4.238281 9.882812 C 4.078125 9.972656 4.027344 10.175781 4.117188 10.335938 C 4.207031 10.492188 4.410156 10.546875 4.570312 10.457031 L 6.574219 9.296875 L 10.011719 7.3125 L 12.015625 6.15625 C 12.175781 6.0625 12.230469 5.863281 12.136719 5.703125 C 12.046875 5.546875 11.84375 5.492188 11.6875 5.582031 L 10.253906 6.410156 L 9.59375 5.265625 C 9.410156 4.945312 9.003906 4.839844 8.6875 5.023438 Z M 5.25 7.007812 "/>
<path style=" stroke:none;fill-rule:nonzero;fill:rgb(100%,100%,100%);fill-opacity:0.235294;" d="M 9.035156 4.933594 C 8.917969 4.929688 8.796875 4.957031 8.6875 5.023438 L 5.25 7.007812 C 5 7.152344 4.878906 7.4375 4.933594 7.707031 C 4.96875 7.523438 5.078125 7.359375 5.25 7.261719 L 8.6875 5.277344 C 9.003906 5.09375 9.410156 5.199219 9.59375 5.519531 L 10.253906 6.664062 L 11.6875 5.835938 C 11.84375 5.746094 12.046875 5.800781 12.136719 5.957031 C 12.144531 5.96875 12.152344 5.984375 12.15625 5.996094 C 12.195312 5.90625 12.191406 5.796875 12.136719 5.703125 C 12.046875 5.546875 11.84375 5.492188 11.6875 5.582031 L 10.253906 6.410156 L 9.59375 5.265625 C 9.472656 5.054688 9.257812 4.9375 9.035156 4.933594 Z M 5.558594 9.117188 L 4.238281 9.882812 C 4.09375 9.964844 4.035156 10.144531 4.097656 10.296875 C 4.125 10.230469 4.171875 10.175781 4.238281 10.136719 L 5.671875 9.308594 Z M 5.558594 9.117188 "/>
<path style=" stroke:none;fill-rule:nonzero;fill:rgb(0%,0%,0%);fill-opacity:0.235294;" d="M 12.105469 6.078125 C 12.082031 6.109375 12.050781 6.136719 12.015625 6.15625 L 10.011719 7.3125 L 6.574219 9.296875 L 4.570312 10.457031 C 4.425781 10.539062 4.25 10.503906 4.148438 10.378906 C 4.0625 10.480469 4.046875 10.628906 4.117188 10.753906 C 4.207031 10.914062 4.410156 10.964844 4.570312 10.875 L 6.574219 9.71875 L 10.011719 7.734375 L 12.015625 6.574219 C 12.175781 6.484375 12.230469 6.28125 12.136719 6.121094 C 12.128906 6.105469 12.117188 6.09375 12.105469 6.078125 Z M 4.953125 7.789062 C 4.894531 7.960938 4.910156 8.15625 5.007812 8.328125 L 5.488281 9.160156 L 5.671875 9.054688 L 5.007812 7.910156 C 4.984375 7.871094 4.96875 7.828125 4.953125 7.789062 Z M 4.953125 7.789062 "/>
<path style="fill:none;stroke-width:3;stroke-linecap:round;stroke-linejoin:round;stroke:rgb(12.941177%,12.941177%,12.941177%);stroke-opacity:1;stroke-miterlimit:4;" d="M 167.983958 9.228587 C 157.859925 14.978038 154.360259 27.976797 160.234698 38.10083 L 181.482669 74.722333 L 135.61205 101.219803 C 130.487539 104.094528 128.862694 110.593907 131.73742 115.718418 C 134.612145 120.717941 141.111525 122.467773 146.236035 119.593048 L 210.354912 82.471593 L 320.344409 18.977656 L 384.463286 -18.018811 C 389.587796 -21.018524 391.337629 -27.392916 388.337916 -32.517426 C 385.46319 -37.516949 378.963811 -39.266782 373.964288 -36.392056 L 328.093669 -9.894587 L 306.970686 -46.516089 C 301.096247 -56.765111 288.097488 -60.139788 277.973455 -54.265349 Z M 167.983958 9.228587 " transform="matrix(0.031253,0,0,0.031253,0,6.719392)"/>
</g>
</svg>
